X:5
T:Sheila Coyle's
R:reel
D:Four Men and a Dog: Barking Mad
D:Greenfire by Greenfire
D:Here And There by Seamus Connolly
D:The Boston Edge by Joe Derrane, Seamus Connolly And John McGann
D:Traditional Fiddle Music From The Glens Of Antrim by Dominic McNabb
M:C|
K:D
FA~A2 FADF|ADFA BAFD|GBBA ~B3G|ABdf edBA|
FA~A2 FADF|ADFA BAFD| GABd AF~F2 |EFGE FDD2:|
|:dffe fgfe|dcdB AFDF|Ac~c2 ecAc|~B3A BAFA|
dffe fgfe|dcdB AFDF|GB~B2 AFDF|EFGE FDD2:|
FA (3AAA FADF|ADFA BAFD|GBBA B(3BB BG|ABdf edBA|
FA (3AAA FADF|ADFA BAFD|GB (3BBB AFDF|EFGE FDD2:|
|:dffe fgfe|dcdB AFDF|Ac (3ccc ecAc|(3BBB BA BAFA|
dffe fgfe|dcdB AFDF|GB (3BBB AFDF|EFGE FDD2:|
|:FA (3AAA FADF|ADFA BAGF|GB (3BBB BcBG|ABdf edBA|
FA (3AAA FADF|ADFA BAGF|GABd AF (3FFF|(3EEE EG FDD2:|
|:dffe fgfe|dBAB ADFA|ceec e2ec|B2dA BAFA|
dffe fgfe|dBAB AFDF|GABd AF (3FFF|(3EEE EG FDD2:|
